!!!OTL: 167a. Junkernlust und Maedchenlist.
!!!ODT: 1770
!!!ARE: Europa, Mitteleuropa, Deutschland
!!!SCT: B0167
!!!TXL: @@DE
!!!YEM: Copyright 1995, estate of Helmut Schaffrath.
**kern	**text
*ICvox	*
*Ivox	*
*M6/8	*
*clefG2	*
*k[b-e-]	*
*B-:	*
!LO:TX:a:t=Allegretto.	!
{8f	Es
=1	=1
8b-L	war
8ccJ	.
8b-	ein
4dd	jun-
8ff	-ges
=2	=2
(8ee-/qq	.
(4dd)	Mäd-
8cc)	.
4b-}	-chen
{8b-	von
=3	=3
8ee-L	rei-
8ddJ	.
8cc	-ʒen-
8ffL	-der
8ee-J	.
8dd	Ge-
=4	=4
(4ddqq	.
[4.cc)	-ſtalt:
4cc]}	.
{8f	dem
=5	=5
8fL	Herrn
8gJ	.
8f	des
8fL	Dorfs
8gJ	.
8f	ge-
=6	=6
4.dd	-fiel
4.gS	ſie
=7	=7
4.f	bald.
8r	.
8r}	.
{8ff	Es
=8	=8
8ffL	traf
8ee-J	.
8dd	auf
4dd	ih-
8ff	-rem
=9	=9
8ee-L	We-
8dd	.
8ccJ	.
4cc}	-ge
{8cc	der
=10	=10
4ff	Herr
8b-	ein-
4ee-	-mal
8dd	ſie
=11	=11
4ddqq	.
[4.cc	an:
4cc]}	.
{8f	Ver-
=12	=12
8b-L	-nimm,
8aJ	.
8b-	was
8ccL	ſie
8b-J	.
8cc	ge-
=13	=13
(8.ddL	-than,
16cc	.
16dd	.
16ee-J	.
4ff})	.
{8ff	ver-
=14	=14
8ffL	-nimm,
8ee-J	.
8dd	was
8ccL	ſie
8ddJ	.
8cc	ge-
=15	=15
4.b-	-than.
4r}	.
==	==
!!!AGN: Ballade, Romanze
!!!GTL: Balladen und Romanzen
!!!ONB: ESAC (Essen Associative Code) Database: BOEHME
!!!AMT: compound duple
!!!AIN: vox
!!!EED: Helmut Schaffrath
!!!EEV: 1.0
!!Opernarie. Text und Mel. 1770.
!!@@COMMENT:"Romanʒe aus der Operette "Lukas und Hannchen. Von Herrn Beckmann, Organiſten ʒu
!!Celle. Ʒuerſt gedruckt in "Unterhaltungen (herausgegeben von Eſchenburg), 10ten Bandes 1ſtes
!!Stück. Monat Julius 1770. Dort S. 80. Das Original wie hier, nur Clavierbegleitung iſt
!!hier weggelaſſen."
!!@@END:
!!!URL-scan: https://archive.org/details/BoehmeVtLieder1895/page/n165/mode/2up
!!!ENC: Anna Maria Matuszewska
!!!EEV: 2024/19/06
*-	*-
